X: 36868
T: Shirley's
R: reel
M: 4/4
K: Amajor
|:ed|(3cdc Bc AF~F2|Acea ef{=g}fe|f<a{b}af ec~c2|eafe Bc{d}cB|
eA (3cBA FAEF|Acea ef{=g}fe|f<a{b}af ecAc|BE^GB A2:|
|:cd|~e3f eAce|dfaf eccd|~e3f ec{d}cB|Adcd BEcd|
~e3f eAce|dfaf ecce|{c}d2fd cdec|BEGB A2:|

